Catalina-light/actions/22/go-home.svg

<svg xmlns="http://www.w3.org/2000/svg" viewBox="0 0 22 22">
  <defs id="defs3051">
    <style type="text/css" id="current-color-scheme">
      .ColorScheme-Text {
        color:#4d4d4d
      }
      </style>
  </defs>
 <path 
     style="fill:currentColor;fill-opacity:1;stroke:none"      
	 class="ColorScheme-Text"
        d="M 11 3 L 2.5585938 11.857422 L 4.1914062 13.572266 L 5.5527344 12.142578 L 5.5527344 19 L 9.9101562 19 L 12.089844 19 L 16.447266 19 L 16.447266 12.142578 L 17.808594 13.572266 L 19.441406 11.857422 L 11 3 z M 14.267578 4.1425781 L 14.267578 5 L 16.447266 7.2851562 L 16.447266 4.1425781 L 14.267578 4.1425781 z "
     />
</svg>

<svg viewBox="0 0 22 22" xmlns="http://www.w3.org/2000/svg">
<defs>
<style id="current-color-scheme" type="text/css">.ColorScheme-Text {
        color:#363636
      }</style>
</defs>
<path class="ColorScheme-Text" d="m11 3-8.4414 8.8574 1.6328 1.7148 1.3613-1.4297v6.8574h4.3574 2.1797 4.3574v-6.8574l1.3613 1.4297 1.6328-1.7148-8.4414-8.8574zm3.2676 1.1426v0.85742l2.1797 2.2852v-3.1426h-2.1797z" fill="#363636"/>
</svg>
